src/assets/kindergalactic-logo.svg

<svg xmlns="http://www.w3.org/2000/svg" viewBox="0 0 213.8 254.6"><title>Kindergalactic green cat logo</title><defs><style>.cls-1{fill:#365aa9}.cls-2{fill:#d42027}.cls-3{fill:#f6871f}.cls-4{fill:#ee5ea2}.cls-5{fill:#93298e}.cls-7{fill:#019449}</style></defs><path d="M14 211.5V191c0-2.7 1.4-4.1 4-4.1h19c3.2 0 4.4 2 3 4.8l-4.3 8.1 6 10.8c1.5 2.8.3 4.9-3 4.9H18.2c-2.7 0-4.1-1.5-4.1-4.1Zm13.6-4.6c0-2-1.6-3.5-3.7-3.5s-3.6 1.5-3.6 3.5 1.6 3.4 3.6 3.4 3.7-1.4 3.7-3.4Z" class="cls-4"/><path d="M47 211.5V191c0-2.7 1.5-4.1 4.2-4.1h5.3c2.7 0 4.1 1.4 4.1 4v20.5c0 2.7-1.4 4-4 4h-5.4c-2.7 0-4.1-1.3-4.1-4Z" class="cls-3"/><path d="M67.4 211.5V190c0-3.2 3.2-4.4 5.8-2.5l8.7 6v-2.4c0-2.7 1.5-4.1 4.1-4.1h5.4c2.6 0 4 1.4 4 4v20.5c0 2.7-1.4 4-4 4h-20c-2.6 0-4-1.3-4-4Zm13.6-4.6c0-2-1.6-3.5-3.7-3.5s-3.6 1.5-3.6 3.5 1.6 3.4 3.6 3.4S81 209 81 207Z" class="cls-5"/><path d="M102.2 211.5V191c0-2.7 1.5-4.1 4.1-4.1h9.3c10.7 0 14.5 7.3 14.5 14.2s-3.8 14.4-14.5 14.4h-9.3c-2.6 0-4-1.5-4-4.1Zm19.4-14.7c0-2-1.5-3.5-3.6-3.5s-3.6 1.5-3.6 3.5 1.5 3.5 3.6 3.5 3.6-1.5 3.6-3.5Z" class="cls-7"/><path d="M135.6 211.5V191c0-2.7 1.5-4.1 4.1-4.1h16.5c2.7 0 4.1 1.4 4.1 4v1.4c0 2.7-1.4 4.1-4 4.1H155v1.3c0 2.6-1.4 4-4 4h-2v2.2h7.1c2.7 0 4.1 1.4 4.1 4v3.5c0 2.7-1.4 4-4 4h-16.6c-2.6 0-4-1.3-4-4Z" class="cls-1"/><path d="M166.8 211.5V191c0-2.7 1.4-4.1 4-4.1h9.3c10.7 0 14.5 4.5 14.5 11 0 4-1.9 6.8-4.5 8.5l4.5 5c1.7 2 1.3 4-1.6 4H171c-2.7 0-4.1-1.3-4.1-4Zm20.3-14.7c0-2-1.6-3.4-3.7-3.4s-3.6 1.4-3.6 3.5 1.6 3.4 3.6 3.4 3.7-1.4 3.7-3.5Z" class="cls-2"/><path d="M36 244.2h-1c-1 0-1.6-.3-2-1l-.7-1a7.8 7.8 0 0 1-5.8 2.5c-6.2 0-10.8-4.5-10.8-10.6s4.8-10.6 11.2-10.6c2.7 0 5.1.8 7 2.2.8.6 1 1.9 0 2.5l-1 .5c-1.5.9-2.4 0-3.7 0-1.5 0-2.6 1-2.6 2.4s1.1 2.4 2.6 2.4c1 0 1.7-.5 2.3-1.2.6-.8 1.2-1 2.3-1h2c1.7 0 2 1.2 2 2.7v8.3c0 1.3-.5 1.9-1.7 1.9Z" class="cls-5"/><path d="m41.4 240.7 9-15.6c1-2 2.8-2 4 0l8.9 15.6c1.1 2 .4 3.5-2 3.5h-18c-2.4 0-3-1.5-2-3.5Zm11.7-2.9c0-1.4-1-2.4-2.5-2.4s-2.6 1-2.6 2.4 1 2.5 2.6 2.5 2.5-1 2.5-2.5Z" class="cls-2"/><path d="M67.2 241.3v-14.5c0-1.8 1-2.8 2.8-2.8h3.8c2 0 3 1 3 2.9v3.8h3.9c1.8 0 2.9 1 2.9 2.9v7.7c0 1.9-1 2.9-3 2.9H70.2c-2 0-3-1-3-2.9Z" class="cls-7"/><path d="m86.9 240.7 8.9-15.6c1-2 3-2 4 0l9 15.6c1.1 2 .4 3.5-2 3.5h-18c-2.4 0-3.1-1.5-2-3.5Zm11.7-2.9c0-1.4-1-2.4-2.5-2.4s-2.6 1-2.6 2.4 1 2.5 2.5 2.5 2.6-1 2.6-2.5Z" class="cls-1"/><path d="M111 234c0-6 4.6-10.5 11-10.5 2.8 0 5.2.8 7 2.1.9.7 1.1 2 0 2.6l-1 .5c-1.4.9-2.5-.2-3.8-.2-1.5 0-2.6 1-2.6 2.4s1.1 2.5 2.6 2.5c1 0 1.7-.6 2.3-1.2.8-1 1.4-1 2.4-1h2c1.7 0 2.3 1.3 2.3 2.8 0 6.2-4.7 10.7-11.1 10.7s-11.2-4.5-11.2-10.7Z" class="cls-3"/><path d="M141.1 241.3V236H139c-1.5 0-2.3-1-2.3-3V227c0-2 1-3 2.9-3h12.8c2 0 3 1 3 3v6.2c0 1.9-.9 2.9-2.3 2.9h-2.3v5.3c0 1.9-1 2.9-2.9 2.9H144c-1.9 0-2.9-1-2.9-2.9Z" class="cls-7"/><path d="M159.8 241.3v-14.5c0-1.8 1-2.8 2.8-2.8h3.8c2 0 3 1 3 2.9v14.4c0 1.9-1 2.9-3 2.9h-3.8c-1.8 0-2.9-1-2.9-2.9Z" class="cls-4"/><path d="M173.3 234c0-6 4.7-10.5 11.1-10.5 2.7 0 5.1.8 7 2.1.8.7 1 2 0 2.6l-1 .5c-1.5.9-2.5-.2-3.9-.2s-2.5 1-2.5 2.4 1 2.5 2.5 2.5c1 0 1.7-.6 2.3-1.2.8-1 1.4-1 2.5-1h2c1.7 0 2.3 1.3 2.3 2.8 0 6.2-4.8 10.7-11.2 10.7s-11.1-4.5-11.1-10.7Z" class="cls-5"/><path d="M12.3 152.8V28.3C12.3 9 32.6.6 48.3 11.8L107 54.3l59-42.5C181.6.6 202 9 202 28.2v124.6c0 15.6-8.4 24-24 24H34c-14 0-21.7-8.4-21.7-24Zm79.7-27c0-11.7-9.1-20.3-21.4-20.3s-21.3 8.6-21.3 20.3 9 20.3 21.3 20.3S92 137.6 92 125.8Zm73.3 0c0-11.7-9.1-20.3-21.4-20.3s-21.3 8.6-21.3 20.3 9 20.3 21.3 20.3 21.4-8.5 21.4-20.3Z" style="fill:#0e9649"/><path d="M69.3 131.1c0 3.4 2.6 5.8 6 5.8s6.2-2.4 6.2-5.8-2.6-5.8-6.1-5.8-6.1 2.5-6.1 5.8M141 131.1c0 3.4 2.6 5.8 6.1 5.8s6.1-2.4 6.1-5.8-2.6-5.8-6-5.8-6.2 2.5-6.2 5.8" class="cls-3"/></svg>

<svg xmlns="http://www.w3.org/2000/svg" viewBox="0 0 214 255">
  <title>Kindergalactic green cat logo</title>
  <defs>
    <mask id="eye-mask-left">
      <ellipse class="eye-mask eye-mask-left" cx="317.9" cy="644.5" rx="115.7" ry="109.9" fill="white"></ellipse>
    </mask>
    <mask id="eye-mask-right">
      <ellipse class="eye-mask eye-mask-right" cx="712.7" cy="644.5" rx="115.7" ry="109.9" fill="white"></ellipse>
    </mask>
  </defs>
  <path d="M14,211.5L14,191C14,188.3 15.4,186.9 18,186.9L37,186.9C40.2,186.9 41.4,188.9 40,191.7L35.7,199.8L41.7,210.6C43.2,213.4 42,215.5 38.7,215.5L18.2,215.5C15.5,215.5 14.1,214 14.1,211.4L14,211.5ZM27.6,206.9C27.6,204.9 26,203.4 23.9,203.4C21.8,203.4 20.3,204.9 20.3,206.9C20.3,208.9 21.9,210.3 23.9,210.3C25.9,210.3 27.6,208.9 27.6,206.9Z" style="fill:rgb(238,94,162);fill-rule:nonzero;"/>
  <path d="M47,211.5L47,191C47,188.3 48.5,186.9 51.2,186.9L56.5,186.9C59.2,186.9 60.6,188.3 60.6,190.9L60.6,211.4C60.6,214.1 59.2,215.4 56.6,215.4L51.2,215.4C48.5,215.4 47.1,214.1 47.1,211.4L47,211.5Z" style="fill:rgb(246,135,31);fill-rule:nonzero;"/>
  <path d="M67.4,211.5L67.4,190C67.4,186.8 70.6,185.6 73.2,187.5L81.9,193.5L81.9,191.1C81.9,188.4 83.4,187 86,187L91.4,187C94,187 95.4,188.4 95.4,191L95.4,211.5C95.4,214.2 94,215.5 91.4,215.5L71.4,215.5C68.8,215.5 67.4,214.2 67.4,211.5ZM81,206.9C81,204.9 79.4,203.4 77.3,203.4C75.2,203.4 73.7,204.9 73.7,206.9C73.7,208.9 75.3,210.3 77.3,210.3C79.3,210.3 81,209 81,207L81,206.9Z" style="fill:rgb(147,41,142);fill-rule:nonzero;"/>
  <path d="M102.2,211.5L102.2,191C102.2,188.3 103.7,186.9 106.3,186.9L115.6,186.9C126.3,186.9 130.1,194.2 130.1,201.1C130.1,208 126.3,215.5 115.6,215.5L106.3,215.5C103.7,215.5 102.3,214 102.3,211.4L102.2,211.5ZM121.6,196.8C121.6,194.8 120.1,193.3 118,193.3C115.9,193.3 114.4,194.8 114.4,196.8C114.4,198.8 115.9,200.3 118,200.3C120.1,200.3 121.6,198.8 121.6,196.8Z" style="fill:rgb(1,148,73);fill-rule:nonzero;"/>
  <path d="M135.6,211.5L135.6,191C135.6,188.3 137.1,186.9 139.7,186.9L156.2,186.9C158.9,186.9 160.3,188.3 160.3,190.9L160.3,192.3C160.3,195 158.9,196.4 156.3,196.4L155,196.4L155,197.7C155,200.3 153.6,201.7 151,201.7L149,201.7L149,203.9L156.1,203.9C158.8,203.9 160.2,205.3 160.2,207.9L160.2,211.4C160.2,214.1 158.8,215.4 156.2,215.4L139.6,215.4C137,215.4 135.6,214.1 135.6,211.4L135.6,211.5Z" style="fill:rgb(54,90,169);fill-rule:nonzero;"/>
  <path d="M166.8,211.5L166.8,191C166.8,188.3 168.2,186.9 170.8,186.9L180.1,186.9C190.8,186.9 194.6,191.4 194.6,197.9C194.6,201.9 192.7,204.7 190.1,206.4L194.6,211.4C196.3,213.4 195.9,215.4 193,215.4L171,215.4C168.3,215.4 166.9,214.1 166.9,211.4L166.8,211.5ZM187.1,196.8C187.1,194.8 185.5,193.4 183.4,193.4C181.3,193.4 179.8,194.8 179.8,196.9C179.8,199 181.4,200.3 183.4,200.3C185.4,200.3 187.1,198.9 187.1,196.8Z" style="fill:rgb(212,32,39);fill-rule:nonzero;"/>
  <path d="M36.1,244.2L35,244.2C34,244.2 33.4,243.9 33,243.2L32.3,242.2C30.806,243.813 28.698,244.722 26.5,244.7C20.3,244.7 15.7,240.2 15.7,234.1C15.7,228 20.5,223.5 26.9,223.5C29.6,223.5 32,224.3 33.9,225.7C34.7,226.3 34.9,227.6 33.9,228.2L32.9,228.7C31.4,229.6 30.5,228.7 29.2,228.7C27.7,228.7 26.6,229.7 26.6,231.1C26.6,232.5 27.7,233.5 29.2,233.5C30.2,233.5 30.9,233 31.5,232.3C32.1,231.5 32.7,231.3 33.8,231.3L35.8,231.3C37.5,231.3 37.8,232.5 37.8,234L37.8,242.3C37.8,243.6 37.3,244.2 36.1,244.2Z" style="fill:rgb(147,41,142);fill-rule:nonzero;"/>
  <path d="M41.4,240.7L50.4,225.1C51.4,223.1 53.2,223.1 54.4,225.1L63.3,240.7C64.4,242.7 63.7,244.2 61.3,244.2L43.3,244.2C40.9,244.2 40.3,242.7 41.3,240.7L41.4,240.7ZM53.1,237.8C53.1,236.4 52.1,235.4 50.6,235.4C49.1,235.4 48,236.4 48,237.8C48,239.2 49,240.3 50.6,240.3C52.2,240.3 53.1,239.3 53.1,237.8Z" style="fill:rgb(212,32,39);fill-rule:nonzero;"/>
  <path d="M67.2,241.3L67.2,226.8C67.2,225 68.2,224 70,224L73.8,224C75.8,224 76.8,225 76.8,226.9L76.8,230.7L80.7,230.7C82.5,230.7 83.6,231.7 83.6,233.6L83.6,241.3C83.6,243.2 82.6,244.2 80.6,244.2L70.2,244.2C68.2,244.2 67.2,243.2 67.2,241.3Z" style="fill:rgb(1,148,73);fill-rule:nonzero;"/>
  <path d="M86.9,240.7L95.8,225.1C96.8,223.1 98.8,223.1 99.8,225.1L108.8,240.7C109.9,242.7 109.2,244.2 106.8,244.2L88.8,244.2C86.4,244.2 85.7,242.7 86.8,240.7L86.9,240.7ZM98.6,237.8C98.6,236.4 97.6,235.4 96.1,235.4C94.6,235.4 93.5,236.4 93.5,237.8C93.5,239.2 94.5,240.3 96,240.3C97.5,240.3 98.6,239.3 98.6,237.8Z" style="fill:rgb(54,90,169);fill-rule:nonzero;"/>
  <path d="M111,234C111,228 115.6,223.5 122,223.5C124.8,223.5 127.2,224.3 129,225.6C129.9,226.3 130.1,227.6 129,228.2L128,228.7C126.6,229.6 125.5,228.5 124.2,228.5C122.7,228.5 121.6,229.5 121.6,230.9C121.6,232.3 122.7,233.4 124.2,233.4C125.2,233.4 125.9,232.8 126.5,232.2C127.3,231.2 127.9,231.2 128.9,231.2L130.9,231.2C132.6,231.2 133.2,232.5 133.2,234C133.2,240.2 128.5,244.7 122.1,244.7C115.7,244.7 110.9,240.2 110.9,234L111,234Z" style="fill:rgb(246,135,31);fill-rule:nonzero;"/>
  <path d="M141.1,241.4L141.1,236L139,236C137.5,236 136.7,235 136.7,233L136.7,227C136.7,225 137.7,224 139.6,224L152.4,224C154.4,224 155.4,225 155.4,227L155.4,233.2C155.4,235.1 154.5,236.1 153.1,236.1L150.8,236.1L150.8,241.4C150.8,243.3 149.8,244.3 147.9,244.3L144,244.3C142.1,244.3 141.1,243.3 141.1,241.4Z" style="fill:rgb(1,148,73);fill-rule:nonzero;"/>
  <path d="M159.8,241.3L159.8,226.8C159.8,225 160.8,224 162.6,224L166.4,224C168.4,224 169.4,225 169.4,226.9L169.4,241.3C169.4,243.2 168.4,244.2 166.4,244.2L162.6,244.2C160.8,244.2 159.7,243.2 159.7,241.3L159.8,241.3Z" style="fill:rgb(238,94,162);fill-rule:nonzero;"/>
  <path d="M173.3,234C173.3,228 178,223.5 184.4,223.5C187.1,223.5 189.5,224.3 191.4,225.6C192.2,226.3 192.4,227.6 191.4,228.2L190.4,228.7C188.9,229.6 187.9,228.5 186.5,228.5C185.1,228.5 184,229.5 184,230.9C184,232.3 185,233.4 186.5,233.4C187.5,233.4 188.2,232.8 188.8,232.2C189.6,231.2 190.2,231.2 191.3,231.2L193.3,231.2C195,231.2 195.6,232.5 195.6,234C195.6,240.2 190.8,244.7 184.4,244.7C178,244.7 173.3,240.2 173.3,234Z" style="fill:rgb(147,41,142);fill-rule:nonzero;"/>
  <path d="M12.3,152.8L12.3,28.3C12.3,9 32.6,0.6 48.3,11.8L107,54.3L166,11.8C181.6,0.6 202,9 202,28.2L202,152.8C202,168.4 193.6,176.8 178,176.8L34,176.8C20,176.8 12.3,168.4 12.3,152.8Z" style="fill:rgb(14,150,73);fill-rule:nonzero;"/>
  <ellipse class="eye eye-left" cx="70.65" cy="125.75" rx="21.35" ry="20.25" style="fill:rgb(235,235,235);"/>
  <circle class="pupil pupil-left" cx="75.4" cy="131.1" r="5.8" style="fill:rgb(246,135,31);"/>
  <ellipse class="eye eye-right" cx="143.935" cy="125.75" rx="21.35" ry="20.25" style="fill:rgb(235,235,235);"/>
  <circle class="pupil pupil-right" cx="147.05" cy="131.1" r="5.8" style="fill:rgb(246,135,31);"/>
</svg>
